src/Assets/check-mark-2.svg

<svg width="24" height="24" xmlns="http://www.w3.org/2000/svg"  fill="white"><path d="M24 6.278l-11.16 12.722-6.84-6 1.319-1.49 5.341 4.686 9.865-11.196 1.475 1.278zm-22.681 5.232l6.835 6.01-1.314 1.48-6.84-6 1.319-1.49zm9.278.218l5.921-6.728 1.482 1.285-5.921 6.756-1.482-1.313z"/></svg>

<svg width="24" height="24" xmlns="http://www.w3.org/2000/svg" fill="#fff"><path d="M24 6.278 12.84 19 6 13l1.319-1.49 5.341 4.686L22.525 5 24 6.278zM1.319 11.51l6.835 6.01L6.84 19 0 13l1.319-1.49zm9.278.218L16.518 5 18 6.285l-5.921 6.756-1.482-1.313z"/></svg>
